korla/apps/scalable/rocketchat.svg

<svg clip-rule="evenodd" fill-rule="evenodd" stroke-linejoin="round" stroke-miterlimit="2" viewBox="0 0 48 48" xmlns="http://www.w3.org/2000/svg">
 <linearGradient id="a" x2="1" gradientTransform="matrix(0 -41.7469 41.7469 0 24 44.3077)" gradientUnits="userSpaceOnUse">
  <stop stop-color="#930000" offset="0"/>
  <stop stop-color="#c1272d" offset="1"/>
 </linearGradient>
 <path d="m6.587 16.176c-.659-5.255-1.893-9.805-3.587-12.176 5.896 0 11.196 2.551 14.856 6.61 1.944-.397 4.007-.61 6.144-.61 11.59 0 21 6.273 21 14s-9.41 14-21 14c-2.137 0-4.2-.213-6.144-.61-3.66 4.059-8.96 6.61-14.856 6.61 2.008-2.342 3.231-6.812 3.784-11.985-2.384-2.271-3.784-5.035-3.784-8.015 0-2.897 1.323-5.589 3.587-7.824z" fill="url(#a)" fill-rule="nonzero"/>
 <path d="m24 13c-5.259 0-9.971 1.453-13.186 3.596-3.211 2.141-4.812 4.75-4.814 7.398.007 1.935.87 3.925 2.846 5.815.67.642 1.006 1.561.908 2.484-.296 2.784-.721 5.407-1.436 7.758 2.815-.94 5.336-2.515 7.289-4.68.712-.788 1.79-1.143 2.831-.93 1.792.368 3.671.558 5.562.559 5.259 0 9.971-1.453 13.186-3.596 3.214-2.143 4.814-4.754 4.814-7.404s-1.6-5.261-4.814-7.404c-3.215-2.143-7.927-3.596-13.186-3.596z" fill="#fff" fill-rule="nonzero"/>
 <path d="m24 21c1.656 0 3 1.344 3 3s-1.344 3-3 3-3-1.344-3-3 1.344-3 3-3zm8 0c1.656 0 3 1.344 3 3s-1.344 3-3 3-3-1.344-3-3 1.344-3 3-3zm-16 0c1.656 0 3 1.344 3 3s-1.344 3-3 3-3-1.344-3-3 1.344-3 3-3z" fill="#c1272d"/>
</svg>

<svg style="clip-rule:evenodd;fill-rule:evenodd;stroke-linejoin:round;stroke-miterlimit:2" version="1.1" viewBox="0 0 48 48" xmlns="http://www.w3.org/2000/svg">
 <path d="M6.587,16.176C5.928,10.921 4.694,6.371 3,4C8.896,4 14.196,6.551 17.856,10.61C19.8,10.213 21.863,10 24,10C35.59,10 45,16.273 45,24C45,31.727 35.59,38 24,38C21.863,38 19.8,37.787 17.856,37.39C14.196,41.449 8.896,44 3,44C5.008,41.658 6.231,37.188 6.784,32.015C4.4,29.744 3,26.98 3,24C3,21.103 4.323,18.411 6.587,16.176Z" style="fill-rule:nonzero;fill:url(#_Linear1)"/>
 <path d="m24 13c-5.259 0-9.971 1.453-13.186 3.596-3.211 2.141-4.812 4.75-4.814 7.398 7e-3 1.935 0.87 3.925 2.846 5.815 0.67 0.642 1.006 1.561 0.908 2.484-0.296 2.784-0.721 5.407-1.436 7.758 2.815-0.94 5.336-2.515 7.289-4.68 0.712-0.788 1.79-1.143 2.831-0.93 1.792 0.368 3.671 0.558 5.562 0.559 5.259 0 9.971-1.453 13.186-3.596 3.214-2.143 4.814-4.754 4.814-7.404s-1.6-5.261-4.814-7.404c-3.215-2.143-7.927-3.596-13.186-3.596z" style="fill-rule:nonzero;fill:white"/>
 <path d="m24 21c1.656 0 3 1.344 3 3s-1.344 3-3 3-3-1.344-3-3 1.344-3 3-3zm8 0c1.656 0 3 1.344 3 3s-1.344 3-3 3-3-1.344-3-3 1.344-3 3-3zm-16 0c1.656 0 3 1.344 3 3s-1.344 3-3 3-3-1.344-3-3 1.344-3 3-3z" style="fill:rgb(193,39,45)"/>
 <defs>
  <linearGradient id="_Linear1" x2="1" gradientTransform="matrix(2.55626e-15,-41.7469,41.7469,2.55626e-15,24,44.3077)" gradientUnits="userSpaceOnUse">
   <stop style="stop-color:rgb(147,0,0)" offset="0"/>
   <stop style="stop-color:rgb(193,39,45)" offset="1"/>
  </linearGradient>
 </defs>
</svg>
